HTML/img/Component/Chord Qualities.svg

<svg viewBox="0.0 0.0 348.0 348.0" xmlns="http://www.w3.org/2000/svg">
    <defs>
        <pattern id="pattern-0" width="20" height="20" patternUnits="userSpaceOnUse" viewBox="0 0 100 100">
            <path d="M0 0h50v100H0z"/>
        </pattern>
        <style id="bx-google-fonts">
            @import url(https://fonts.googleapis.com/css?family=Cookie:400|Roboto:100,100italic,300,300italic,400,400italic,500,500italic,700,700italic,900,900italic);
        </style>
    </defs>
    <path fill-opacity="0" d="M0 0h348v348H0z"/>
    <path fill="#fff" d="M-6 0h348v347.969H-6z"/>
    <path fill-opacity="0" d="M5.079 5.776h336.913v337.669H5.079z" stroke="#000" stroke-linejoin="round"/>
    <path stroke="#000" stroke-width="2" stroke-linejoin="round" d="M5.079 5.776h336.913v337.669H5.079z" fill="#fff"/>
    <path fill="#fff" d="M282.734 40.554c0-8.376 6.966-15.165 15.559-15.165 4.127 0 8.085 1.597 11.002 4.441 2.918 2.844 4.558 6.702 4.558 10.724 0 8.376-6.966 15.165-15.56 15.165-8.593 0-15.559-6.789-15.559-15.165z"/>
    <path stroke="#000" stroke-width="2" stroke-linejoin="round" d="M282.734 40.554c0-8.376 6.966-15.165 15.559-15.165 4.127 0 8.085 1.597 11.002 4.441 2.918 2.844 4.558 6.702 4.558 10.724 0 8.376-6.966 15.165-15.56 15.165-8.593 0-15.559-6.789-15.559-15.165z" fill="#fff"/>
    <path fill-opacity="0" d="M38.37 95.737h107.213v100.189H38.37zM152.48 95.737h107.213v100.189H152.48zM38.37 206.521h107.213V306.71H38.37zM152.48 206.521h107.213V306.71H152.48z"/>
    <ellipse cx="64.075" cy="267.04" rx="25" ry="25" transform="translate(0 17.172)" fill="rgba(255,255,255,0)" stroke="#000" stroke-width="2"/>
    <ellipse cx="64.075" cy="267.04" rx="25" ry="25" transform="translate(218.13 18.176)" fill="rgba(255,255,255,0)" stroke="#000" stroke-width="2"/>
    <path transform="rotate(45 3.473 280.096)" fill="rgba(216,216,216,0)" stroke="#000" stroke-width="2" d="M34.235 225.154h30v30h-30z"/>
    <path stroke-width="2" d="M64.075 268.655l15.556 15.557-15.556 15.556-15.556-15.556z"/>
    <ellipse cx="173.857" cy="163.87" rx="116.148" ry="116.15" fill="none" stroke="#000" stroke-width="5"/>
    <text x="264.436" y="302.986" transform="matrix(1.55826 0 0 1.32558 -151.083 -96.176)" font-size="36" white-space="pre">
        ✓
    </text>
    <ellipse transform="translate(-273.888 -7.456)" cx="415.274" cy="114.149" rx="10" ry="10" fill="none" stroke="#000" stroke-width="1.3"/>
    <defs>
        <style id="bx-google-fonts">
            @import url(https://fonts.googleapis.com/css?family=Roboto:100,100italic,300,300italic,400,400italic,500,500italic,700,700italic,900,900italic);
        </style>
    </defs>
    <ellipse cx="173.947" cy="97.3" rx="10" ry="10" fill="none" stroke="#000" stroke-width="1.3"/>
    <ellipse cx="206.188" cy="106.142" rx="10" ry="10" fill="none" stroke="#000" stroke-width="1.3"/>
    <ellipse transform="translate(-297.757 17.04)" cx="415.274" cy="114.149" rx="10" ry="10" fill="none" stroke="#000" stroke-width="1.3"/>
    <ellipse cx="108.544" cy="164.161" rx="10" ry="10" fill="none" stroke="#000" stroke-width="1.3"/>
    <ellipse cx="117.252" cy="197.776" rx="10" ry="10" fill="none" stroke="#000" stroke-width="1.3"/>
    <ellipse cx="140.939" cy="222.856" rx="10" ry="10" fill="none" stroke="#000" stroke-width="1.3"/>
    <ellipse cx="173.509" cy="231.565" rx="10" ry="10" fill="none" stroke="#000" stroke-width="1.3"/>
    <ellipse cx="206.775" cy="222.508" rx="10" ry="10" fill="none" stroke="#000" stroke-width="1.3"/>
    <ellipse cx="230.636" cy="197.95" rx="10" ry="10" fill="none" stroke="#000" stroke-width="1.3"/>
    <ellipse cx="239.171" cy="164.51" rx="10" ry="10" fill="none" stroke="#000" stroke-width="1.3"/>
    <ellipse cx="226.456" cy="130.895" rx="10" ry="10" transform="translate(4.006 -.174)" fill="none" stroke="#000" stroke-width="1.3"/>
    <text x="165.643" y="82.895" font-family="Cookie" font-size="36" white-space="pre">
        A
    </text>
    <text x="242.542" y="118.941" transform="rotate(60 243.19 114.467)" font-family="Cookie" font-size="36" white-space="pre">
        B
    </text>
    <text x="263.208" y="163.158" transform="matrix(0 1 -1 0 417.01 -108.23)" font-family="Cookie" font-size="36" white-space="pre">
        C
    </text>
    <text x="210.34" y="249.188" transform="rotate(150 218.623 241.265)" font-family="Cookie" font-size="36" white-space="pre">
        D
    </text>
    <text x="-146.658" y="-225.812" transform="rotate(-150 60.244 -31.256)" font-family="Cookie" font-size="36" white-space="pre">
        E
    </text>
    <text x="88.745" y="213.622" transform="rotate(-120 98.387 206.878)" font-family="Cookie" font-size="36" white-space="pre">
        F
    </text>
    <text x="93.07" y="116.057" transform="rotate(-60 110.115 119.013)" font-family="Cookie" font-size="36" white-space="pre">
        G
    </text>
    <text x="114.222" y="92.661" transform="rotate(-30 122.741 79.11)" font-family="Cookie" font-size="26" white-space="pre">
        ♯♭
    </text>
    <text x="-224.376" y="-74.461" transform="rotate(30 -305.076 807.166)" font-family="Cookie" font-size="26" white-space="pre">
        ♯♭
    </text>
    <text x="114.222" y="92.661" transform="rotate(120 152.646 184.865)" font-family="Cookie" font-size="26" white-space="pre">
        ♯♭
    </text>
    <text x="-185.181" y="-250.527" transform="rotate(180)" font-family="Cookie" font-size="26" white-space="pre">
        ♯♭
    </text>
    <text x="66.182" y="172.382" transform="rotate(-90 79.227 162.222)" font-family="Cookie" font-size="26" white-space="pre">
        ♯♭
    </text>
    <text x="172.269" y="160.695" transform="rotate(60 202.093 169.938)" font-size="29" white-space="pre">
        Δ
    </text>
    <defs>
        <style id="bx-google-fonts">
            @import url(https://fonts.googleapis.com/css?family=Cabin+Condensed:400,500,600,700|Roboto:100,100italic,300,300italic,400,400italic,500,500italic,700,700italic,900,900italic);
        </style>
    </defs>
    <text x="172.269" y="160.695" transform="rotate(-60 154.79 184.885)" font-size="29" white-space="pre">
        Δ
    </text>
    <text x="172.269" y="160.695" transform="rotate(-150 174.888 179.331)" font-size="29" white-space="pre">
        Δ
    </text>
    <text x="172.269" y="160.695" transform="rotate(120 185.875 175.585)" font-size="29" white-space="pre">
        Δ
    </text>
</svg>

<?xml version="1.0" encoding="utf-8"?>
<svg viewBox="0.0 0.0 348.0 348.0" xmlns="http://www.w3.org/2000/svg" xmlns:xlink="http://www.w3.org/1999/xlink">
  <defs>
    <pattern id="pattern-0" x="0" y="0" width="20" height="20" patternUnits="userSpaceOnUse" viewBox="0 0 100 100">
      <path d="M 0 0 L 50 0 L 50 100 L 0 100 Z" style="fill: black;"/>
    </pattern>
    <style id="bx-google-fonts">@import url(https://fonts.googleapis.com/css?family=Cookie:400|Roboto:100,100italic,300,300italic,400,400italic,500,500italic,700,700italic,900,900italic);</style>
  </defs>
  <path fill="#000000" fill-opacity="0.0" d="M 0 0 L 348 0 L 348 348 L 0 348 Z" fill-rule="nonzero"/>
  <path fill="#ffffff" d="M -6 0 L 342 0 L 342 347.969 L -6 347.969 Z" fill-rule="nonzero"/>
  <path fill-opacity="0.0" d="M 5.079 5.776 L 341.992 5.776 L 341.992 343.445 L 5.079 343.445 Z" style="stroke: rgb(0, 0, 0); stroke-linejoin: round; fill: rgb(0, 0, 0);"/>
  <path stroke="#000000" stroke-width="2.0" stroke-linejoin="round" stroke-linecap="butt" d="M 5.079 5.776 L 341.992 5.776 L 341.992 343.445 L 5.079 343.445 Z" fill-rule="nonzero" style="fill: rgb(255, 255, 255);"/>
  <path fill="#ffffff" d="M 282.734 40.554 L 282.734 40.554 C 282.734 32.178 289.7 25.389 298.293 25.389 L 298.293 25.389 C 302.42 25.389 306.378 26.986 309.295 29.83 C 312.213 32.674 313.853 36.532 313.853 40.554 L 313.853 40.554 C 313.853 48.93 306.887 55.719 298.293 55.719 L 298.293 55.719 C 289.7 55.719 282.734 48.93 282.734 40.554 Z" fill-rule="nonzero"/>
  <path stroke="#000000" stroke-width="2.0" stroke-linejoin="round" stroke-linecap="butt" d="M 282.734 40.554 L 282.734 40.554 C 282.734 32.178 289.7 25.389 298.293 25.389 L 298.293 25.389 C 302.42 25.389 306.378 26.986 309.295 29.83 C 312.213 32.674 313.853 36.532 313.853 40.554 L 313.853 40.554 C 313.853 48.93 306.887 55.719 298.293 55.719 L 298.293 55.719 C 289.7 55.719 282.734 48.93 282.734 40.554 Z" fill-rule="nonzero" style="fill: rgb(255, 255, 255);"/>
  <path fill="#000000" fill-opacity="0.0" d="M 38.37 95.737 L 145.583 95.737 L 145.583 195.926 L 38.37 195.926 Z" fill-rule="nonzero"/>
  <path fill="#000000" fill-opacity="0.0" d="M 152.48 95.737 L 259.693 95.737 L 259.693 195.926 L 152.48 195.926 Z" fill-rule="nonzero"/>
  <path fill="#000000" fill-opacity="0.0" d="M 38.37 206.521 L 145.583 206.521 L 145.583 306.71 L 38.37 306.71 Z" fill-rule="nonzero"/>
  <path fill="#000000" fill-opacity="0.0" d="M 152.48 206.521 L 259.693 206.521 L 259.693 306.71 L 152.48 306.71 Z" fill-rule="nonzero"/>
  <ellipse cx="64.075" cy="267.04" rx="25" ry="25" transform="matrix(1, 0, 0, 1.000001, 0, 17.171559)" style="fill: rgba(255, 255, 255, 0); stroke: rgb(0, 0, 0); stroke-width: 2;"/>
  <ellipse cx="64.075" cy="267.04" rx="25" ry="25" transform="matrix(1, 0, 0, 1.000001, 218.129837, 18.176015)" style="fill: rgba(255, 255, 255, 0); stroke: rgb(0, 0, 0); stroke-width: 2;"/>
  <rect x="34.235" y="225.154" width="30" height="30" transform="matrix(0.707107, 0.707107, -0.707106, 0.707108, 199.075155, 79.582444)" style="fill: rgba(216, 216, 216, 0); stroke: rgb(0, 0, 0); stroke-width: 2;"/>
  <rect x="25.105" y="165.113" width="22" height="22" transform="matrix(0.707107, 0.707106, -0.707106, 0.707107, 163.075418, 134.150972)" style="stroke-width: 2;"/>
  <ellipse cx="173.857" cy="163.87" rx="116.148" ry="116.15" style="fill: none; stroke: rgb(0, 0, 0); stroke-width: 5;"/>
  <text x="264.436" y="302.986" style="font-size: 36px; white-space: pre;" transform="matrix(1.55826, 0, 0, 1.325581, -151.083435, -96.176254)">✓</text>
  <ellipse transform="matrix(1, 0, 0, 0.999999, -273.887909, -7.456158)" cx="415.274" cy="114.149" rx="10" ry="10" style="fill: none; stroke: rgb(0, 0, 0); stroke-width: 1.3;"/>
  <defs>
    <style id="bx-google-fonts">@import url(https://fonts.googleapis.com/css?family=Roboto:100,100italic,300,300italic,400,400italic,500,500italic,700,700italic,900,900italic);</style>
  </defs>
  <ellipse cx="173.947" cy="97.3" rx="10" ry="10" style="fill: none; stroke: rgb(0, 0, 0); stroke-width: 1.3;"/>
  <ellipse cx="206.188" cy="106.142" rx="10" ry="10" style="fill: none; stroke: rgb(0, 0, 0); stroke-width: 1.3;"/>
  <ellipse transform="matrix(1, 0, 0, 0.999999, -297.756714, 17.040813)" cx="415.274" cy="114.149" rx="10" ry="10" style="fill: none; stroke: rgb(0, 0, 0); stroke-width: 1.3;"/>
  <ellipse cx="108.544" cy="164.161" rx="10" ry="10" style="fill: none; stroke: rgb(0, 0, 0); stroke-width: 1.3;"/>
  <ellipse cx="117.252" cy="197.776" rx="10" ry="10" style="fill: none; stroke: rgb(0, 0, 0); stroke-width: 1.3;"/>
  <ellipse cx="140.939" cy="222.856" rx="10" ry="10" style="fill: none; stroke: rgb(0, 0, 0); stroke-width: 1.3;"/>
  <ellipse cx="173.509" cy="231.565" rx="10" ry="10" style="fill: none; stroke: rgb(0, 0, 0); stroke-width: 1.3;"/>
  <ellipse cx="206.775" cy="222.508" rx="10" ry="10" style="fill: none; stroke: rgb(0, 0, 0); stroke-width: 1.3;"/>
  <ellipse cx="230.636" cy="197.95" rx="10" ry="10" style="fill: none; stroke: rgb(0, 0, 0); stroke-width: 1.3;"/>
  <ellipse cx="239.171" cy="164.51" rx="10" ry="10" style="fill: none; stroke: rgb(0, 0, 0); stroke-width: 1.3;"/>
  <ellipse cx="226.456" cy="130.895" rx="10" ry="10" style="fill: none; stroke: rgb(0, 0, 0); stroke-width: 1.3;" transform="matrix(1, 0, 0, 1.000001, 4.005875, -0.174264)"/>
  <text x="165.643" y="82.895" style="font-family: Cookie; font-size: 36px; white-space: pre;">A</text>
  <text x="242.542" y="118.941" transform="matrix(0.499999, 0.866024, -0.866025, 0.5, 220.7267, -153.375061)" style="font-family: Cookie; font-size: 36px; white-space: pre;">B</text>
  <text x="263.208" y="163.158" transform="matrix(0.000002, 1.000001, -1, 0.000001, 417.010223, -108.229515)" style="font-family: Cookie; font-size: 36px; white-space: pre;">C</text>
  <text x="210.34" y="249.188" transform="matrix(-0.866026, 0.5, -0.499999, -0.866025, 528.58844, 340.89447)" style="font-family: Cookie; font-size: 36px; white-space: pre;">D</text>
  <text x="-146.658" y="-225.812" transform="matrix(-0.866026, -0.5, 0.5, -0.866025, 128.044281, -28.20331)" style="font-family: Cookie; font-size: 36px; white-space: pre;">E</text>
  <text x="88.745" y="213.622" transform="matrix(-0.499999, -0.866025, 0.866026, -0.5, -31.580591, 395.522583)" style="font-family: Cookie; font-size: 36px; white-space: pre;">F</text>
  <text x="93.07" y="116.057" transform="matrix(0.5, -0.866025, 0.866026, 0.5, -48.010906, 154.869019)" style="font-family: Cookie; font-size: 36px; white-space: pre;">G</text>
  <text x="114.222" y="92.661" transform="matrix(0.866025, -0.5, 0.5, 0.866025, -23.111185, 71.969603)" style="font-family: Cookie; font-size: 26px; white-space: pre;">♯♭</text>
  <text x="-224.376" y="-74.461" transform="matrix(0.866025, 0.5, -0.500001, 0.866025, 362.710236, 260.677948)" style="font-family: Cookie; font-size: 26px; white-space: pre;">♯♭</text>
  <text x="114.222" y="92.661" transform="matrix(-0.500001, 0.866027, -0.866026, -0.5, 389.066284, 145.102127)" style="font-family: Cookie; font-size: 26px; white-space: pre;">♯♭</text>
  <text x="-185.181" y="-250.527" transform="matrix(-1, 0, 0, -1, 0, 0)" style="font-family: Cookie; font-size: 26px; white-space: pre;">♯♭</text>
  <text x="66.182" y="172.382" transform="matrix(0, -1, 1, 0, -82.995262, 241.448418)" style="font-family: Cookie; font-size: 26px; white-space: pre;">♯♭</text>
  <text x="172.269" y="160.695" transform="matrix(0.5, 0.866025, -0.866025, 0.5, 248.21734, -90.048403)" style="font-size: 29px; white-space: pre;">Δ</text>
  <defs>
    <style id="bx-google-fonts">@import url(https://fonts.googleapis.com/css?family=Cabin+Condensed:400,500,600,700|Roboto:100,100italic,300,300italic,400,400italic,500,500italic,700,700italic,900,900italic);</style>
  </defs>
  <text x="172.269" y="160.695" transform="matrix(0.499999, -0.866025, 0.866026, 0.499999, -82.719421, 226.494934)" style="font-size: 29px; white-space: pre;">Δ</text>
  <text x="172.269" y="160.695" transform="matrix(-0.866026, -0.500001, 0.5, -0.866025, 236.679016, 422.08078)" style="font-size: 29px; white-space: pre;">Δ</text>
  <text x="172.269" y="160.695" transform="matrix(-0.499999, 0.866026, -0.866026, -0.5, 430.873901, 102.403786)" style="font-size: 29px; white-space: pre;">Δ</text>
</svg>
